icons/overwrite-project-16.svg

<?xml version="1.0" encoding="UTF-8"?><svg id="icons" xmlns="http://www.w3.org/2000/svg" viewBox="0 0 16 16"><defs><style>.cls-1{fill:none;}.cls-1,.cls-2{stroke-width:0px;}.cls-2{fill:#000;}</style></defs><path class="cls-2" d="M1,8v-3h8v1h1V2h-2V0H2v2H0v7h5c0-.55273.44727-1,1-1H1ZM3,1h4v1H3v-1ZM1,3h8v1H1v-1ZM14,7h-6v2h-2v7h10v-7h-2v-2ZM9,8h4v1h-4v-1ZM15,15H7v-3h8v3ZM15,10v1H7v-1h8ZM16,4.25v1.75h-1v-1.75c0-.68945-.56055-1.25-1.25-1.25h-.75v1.45001l-2.04999-1.95001,2.04999-1.95001v1.45001h.75c1.24023,0,2.25,1.00977,2.25,2.25Z"/><rect class="cls-1" width="16" height="16"/></svg>

<svg xmlns="http://www.w3.org/2000/svg" viewBox="0 0 16 16"><path d="M1 8V5h8v1h1V2H8V0H2v2H0v7h5a1 1 0 0 1 1-1H1zm2-7h4v1H3V1zM1 3h8v1H1V3zm13 4H8v2H6v7h10V9h-2V7zM9 8h4v1H9V8zm6 7H7v-3h8v3zm0-5v1H7v-1h8zm1-5.75V6h-1V4.25C15 3.56 14.44 3 13.75 3H13v1.45L10.95 2.5 13 .55V2h.75C14.99 2 16 3.01 16 4.25z" stroke-width="0"/><path stroke-width="0" fill="none" d="M0 0h16v16H0z"/></svg>
